X:29
T:Scarborough Fair
T:The Elfin Knight
B:Bronson
C:Trad
O:Kidson, 1891, p.172.  Sung by A.Wardill, Goathland.
N:Child 2
M:6/8
L:1/8
K:G
D | GGG c2 B | AGE D2 z |
w:O where are you going? To Scar-bor-ough Fair!
d2 B BAG | cde A2 d | d2 c BAB |
w:Rue, par-se-ley, rose-ma-ry and thyme Re-mem-ber me to a
EEF GF D | G2 G cBB | AGE D2 |]
w:lass who lived there_ For once she was a true lov-er of mine
W:
W:O where are you going? To Scarborough Fair!
W:Rue, parseley, rosemary and thyme
W:Remember me to a lass who lived there
W:For once she was a true lover of mine
